X:1
T:Roll On, Sweet Galilee
T:Roll On, Sweet Galilee
T:John James Hulsey
T:John James Hulsey, 1911
T:Public Domain Courtesy of the Cyber Hymnal™
T:Public Domain Courtesy of the Cyber Hymnal™
C:John James Hulsey
Z:Public Domain
Z:Courtesy of the Cyber Hymnal™
%%score ( 1 2 ) ( 3 4 )
L:1/8
Q:1/4=100
M:6/8
K:G
V:1 treble 
V:2 treble 
V:3 bass 
V:4 bass 
V:1
 [B,D] | [DG]2 [DG] [DG]2 [GB] | [Gd]2 [Gd] [Gd]2 [Gd] | [Gd]2 [Gd] [GB]2 G | [GB]2 G [GB]2 [FA] | %5
w: 1.~Of|all the seas of|earth most blest, Whose|storm- beat shores seek|oft- en for sweet|
w: 2.~Up-|on thy waves once|Je- sus came, The|wild- est storm, He|spoke, His voice did|
w: 3.~Up-|on thy waves, in-|spir- ing waves, Once|walked this Christ the|lost of earth to|
w: 4.~The|Christ who walked up-|on thy shores Now|rules and reigns in|Heav’n for ev- er-|
 [FA]3- [FA]2 D | [DG]2 [DG] [DG]2 [GB] | [Gd]2 [Gd] [Gd]2 [Gd] | [Gd]2 [Gd] [GB]2 G | %9
w: rest, * It|must be thou, blue|Gal- i- lee, For|in His word we|
w: tame, * And|made the breast a|calm re- pose, To-|day all thro’ this|
w: save; * Roll|on in peace, sweet|Gal- i- lee, Where|walked this Christ who|
w: more; * Now|as some life- boat|rides thy waves, We|shout and sing how|
 [GB]2 [Gd] [GB]2 [FA] | G3- G2 ||"^Refrain" [GB] | d3- [Bd]2 [ce] | d2 A [GB]2 [Gd] | %14
w: find He spoke to|thee. *||||
w: world the sto- ry|goes. *|Roll|on, roll on,|* * * O|
w: spoke and calmed thy|waves. *||||
w: much like Christ to|save. *||||
 [Gd]2 [Gd] [GB]2 G | [GB]2 G [GB]2 [FA] | [FA]3- [FA]2 D | [DG]2 [DG] [DG]2 [GB] | %18
w: ||||
w: Gal- i- lee, Roll|on, roll on in|peace; * For|once this Sav- ior|
w: ||||
w: ||||
 [Gd]2 [Gd] [Gd]2 [Gd] | [Gd]2 [Gd] [GB]2 G | [GB]2 [Gd] [GB]2 [FA] | G3- G2 |] %22
w: ||||
w: calmed thy shore To|prove His won- drous|power on earth to|save. *|
w: ||||
w: ||||
V:2
 x | x6 | x6 | x5 G | x2 G x3 | x5 D | x6 | x6 | x5 G | x6 | G3- G2 || x | G2 G x3 | B3 x3 | x5 G | %15
 x2 G x3 | x5 D | x6 | x6 | x5 G | x6 | G3- G2 |] %22
V:3
 G, | [G,B,]2 [G,B,] [G,B,]2 [G,D] | [G,B,]2 [G,B,] [G,B,]2 [G,B,] | [G,B,]2 [G,B,] G,2 [G,B,] | %4
w: in|||* * peace, *|
 [G,D]2 [B,,D] [D,D]2 [D,D] | [D,D]3 [D,D]2 [G,B,] | [G,B,]2 [G,B,] [G,B,]2 [G,D] | %7
w: |||
 [G,B,]2 [G,B,] [G,B,]2 [G,B,] | [G,B,]2 [G,B,] [G,D]2 [B,,D] | [D,D]2 [D,B,] [D,D]2 [D,C] | %10
w: |||
 [G,,B,]3- [G,,B,]2 || [G,D] | [G,B,]2 [G,B,] G,2 [C,G,] | [G,,G,]2 [D,F,] G,2 [G,B,] | %14
w: ||* roll on, *||
 [G,B,]2 [G,B,] [G,D]2 [B,,D] | [D,D]2 [D,B,] [D,D]2 [D,D] | [D,D]3- [D,D]2 [G,B,] | %17
w: |||
 [G,B,]2 [G,B,] [G,B,]2 [G,D] | [G,B,]2 [G,B,] [G,B,]2 [G,B,] | [G,B,]2 [G,B,] [G,D]2 [B,,D] | %20
w: |||
 [D,D]2 [D,B,] [D,D]2 [D,C] | [G,,B,]3- [G,,B,]2 |] %22
w: ||
V:4
 G, | x6 | x6 | x3 G,2 x | x6 | x6 | x6 | x6 | x6 | x6 | x5 || x | x3 G,2 x | x3 G,2 x | x6 | x6 | %16
 x6 | x6 | x6 | x6 | x6 | x5 |] %22

